src/assets/img/record_save.svg

<svg width="238" height="178" viewBox="0 0 238 178" fill="none" xmlns="http://www.w3.org/2000/svg">
<path d="M214.902 153.539L205.651 150.562C183.879 143.562 165.968 143.562 144.209 150.562L128.555 155.594L112.901 150.562C91.1096 143.558 73.2185 143.558 51.4443 150.564L42.1761 153.539C41.4423 153.775 40.6631 153.834 39.9021 153.712C39.1411 153.589 38.4198 153.289 37.7969 152.835C37.174 152.381 36.6671 151.786 36.3176 151.099C35.9681 150.412 35.7858 149.653 35.7855 148.882V49.8535C35.7885 48.8186 36.1192 47.8111 36.7302 46.9757C37.3412 46.1404 38.2011 45.52 39.1865 45.2036L51.4443 41.2646C73.2185 34.2484 91.1096 34.2484 112.889 41.2549L128.543 46.287L144.196 41.2549C165.968 34.2484 183.864 34.2484 205.638 41.2549L217.896 45.2036C218.885 45.5192 219.747 46.1405 220.36 46.978C220.972 47.8154 221.303 48.8257 221.305 49.8633V148.884C221.305 149.656 221.123 150.418 220.773 151.106C220.422 151.794 219.914 152.39 219.29 152.844C218.665 153.298 217.942 153.597 217.179 153.718C216.417 153.839 215.636 153.778 214.902 153.539Z" fill="white" stroke="#2F3645" stroke-width="3" stroke-miterlimit="10"/>
<path d="M128.501 155.596V46.2871" stroke="#2F3645" stroke-width="3" stroke-miterlimit="10"/>
<path d="M207.723 60.3464L205.643 59.6769C184.035 52.7312 166.243 52.6801 144.693 59.5211L144.206 59.6769" stroke="#2F3645" stroke-width="3" stroke-miterlimit="10" stroke-linecap="round"/>
<path d="M207.723 72.5065L205.643 71.837C184.035 64.8914 166.243 64.8403 144.693 71.6812L144.206 71.837" stroke="#2F3645" stroke-width="3" stroke-miterlimit="10" stroke-linecap="round"/>
<path d="M207.723 86.6953L205.643 86.0258C184.035 79.0801 166.243 79.0266 144.693 85.8675L144.206 86.0258" stroke="#2F3645" stroke-width="3" stroke-miterlimit="10" stroke-linecap="round"/>
<path d="M207.722 98.8553L205.643 98.1858C184.03 91.2401 166.238 91.1866 144.688 98.0324L144.201 98.1907" stroke="#2F3645" stroke-width="3" stroke-miterlimit="10" stroke-linecap="round"/>
<path d="M113.583 108.825L111.504 108.155C89.8949 101.21 72.1035 101.156 50.5533 107.997L50.0664 108.155" stroke="#2F3645" stroke-width="3" stroke-miterlimit="10" stroke-linecap="round"/>
<path d="M113.583 120.985L111.504 120.315C89.8925 113.37 72.1035 113.316 50.5533 120.157L50.0664 120.315" stroke="#2F3645" stroke-width="3" stroke-miterlimit="10" stroke-linecap="round"/>
<path d="M113.583 133.145L111.504 132.476C89.8925 125.542 72.1035 125.477 50.5533 132.318L50.0664 132.476" stroke="#2F3645" stroke-width="3" stroke-miterlimit="10" stroke-linecap="round"/>
<path d="M207.722 151.234L214.904 153.539C215.638 153.775 216.417 153.834 217.178 153.712C217.939 153.589 218.66 153.289 219.283 152.835C219.905 152.381 220.412 151.786 220.761 151.099C221.111 150.412 221.293 149.653 221.292 148.882V58.6542L225.321 59.8496C227.512 60.4996 229 62.3815 229 64.5068V163.538C229 166.856 225.499 169.21 222.076 168.195L212.039 165.225C188.446 158.225 169.053 158.225 145.462 165.225L128.501 170.257L111.538 165.225C87.9472 158.225 68.554 158.225 44.9636 165.225L34.9237 168.195C31.5154 169.21 28 166.856 28 163.538V64.5068C28 62.3815 29.4875 60.4996 31.6785 59.8496L35.7904 58.6323V148.884C35.7913 149.654 35.9738 150.413 36.3233 151.099C36.6727 151.786 37.1791 152.38 37.8013 152.833C38.4236 153.287 39.1441 153.587 39.9042 153.71C40.6644 153.832 41.4428 153.774 42.1761 153.539L51.4272 150.562C73.2014 143.562 91.1097 143.562 112.872 150.562L128.526 155.594L139.038 152.215L144.179 150.562C165.951 143.562 183.862 143.562 205.621 150.562L207.722 151.234Z" fill="#E6B9A6" stroke="#2F3645" stroke-width="3" stroke-miterlimit="10"/>
<path d="M70.3051 66.8301H64" stroke="#2F3645" stroke-width="3" stroke-miterlimit="10" stroke-linecap="round"/>
<path d="M70.305 66.8302L66.6689 63" stroke="#2F3645" stroke-width="3" stroke-miterlimit="10" stroke-linecap="round"/>
<path d="M66.6689 70.6603L70.305 66.8301" stroke="#2F3645" stroke-width="3" stroke-miterlimit="10" stroke-linecap="round"/>
<path d="M95.8411 66.8301H102.146" stroke="#2F3645" stroke-width="3" stroke-miterlimit="10" stroke-linecap="round"/>
<path d="M95.8411 66.8301L99.4771 70.6603" stroke="#2F3645" stroke-width="3" stroke-miterlimit="10" stroke-linecap="round"/>
<path d="M99.4771 63L95.8411 66.8302" stroke="#2F3645" stroke-width="3" stroke-miterlimit="10" stroke-linecap="round"/>
<path d="M89.9675 69.5244C89.9675 68.8566 89.7029 68.2161 89.232 67.7439C88.761 67.2716 88.1223 67.0063 87.4562 67.0063H78.6538C77.9878 67.0063 77.3491 67.2716 76.8781 67.7439C76.4072 68.2161 76.1426 68.8566 76.1426 69.5244C76.1426 72.1687 79.2492 74.3142 83.083 74.3142C86.9168 74.3142 90.0214 72.1687 90.0214 69.5244" stroke="#2F3645" stroke-width="3" stroke-miterlimit="10" stroke-linecap="round"/>
<path d="M198.108 33.2973C195.664 30.8473 193.832 22.5859 193.832 22.5859C193.832 22.5859 185.591 20.7489 183 18.1486C185.543 15.5985 193.988 13.5612 193.988 13.5612C193.988 13.5612 195.62 5.50007 198.114 3C200.599 5.50007 202.541 13.8617 202.541 13.8617C202.541 13.8617 210.682 15.5985 213.223 18.1486C210.826 20.5525 202.69 22.2854 202.69 22.2854C202.69 22.2854 200.743 30.647 198.108 33.2973Z" fill="#FEC420" stroke="#2F3645" stroke-width="3" stroke-miterlimit="10" stroke-linecap="round"/>
<path d="M226.424 40.8827C224.901 39.3542 223.755 34.2139 223.755 34.2139C223.755 34.2139 218.616 33.068 217 31.4474C218.586 29.8568 223.849 28.5867 223.849 28.5867C223.849 28.5867 224.865 23.5585 226.42 22C227.976 23.5585 229.181 28.773 229.181 28.773C229.181 28.773 234.255 29.8568 235.841 31.4474C234.353 32.9318 229.277 34.0135 229.277 34.0135C229.277 34.0135 228.072 39.222 226.424 40.8827Z" fill="#FEC420" stroke="#2F3645" stroke-width="3" stroke-miterlimit="10" stroke-linecap="round"/>
<path d="M12.4237 174.883C10.9014 173.354 9.75462 168.214 9.75462 168.214C9.75462 168.214 4.61623 167.068 3 165.447C4.58627 163.857 9.84851 162.587 9.84851 162.587C9.84851 162.587 10.8654 157.559 12.4197 156C13.976 157.559 15.1807 162.773 15.1807 162.773C15.1807 162.773 20.2552 163.857 21.8414 165.447C20.353 166.932 15.2766 168.014 15.2766 168.014C15.2766 168.014 14.0719 173.222 12.4237 174.883Z" fill="#FEC420" stroke="#2F3645" stroke-width="3" stroke-miterlimit="10" stroke-linecap="round"/>
</svg>

<svg width="238" height="178" fill="none" xmlns="http://www.w3.org/2000/svg"><path d="m214.902 153.539-9.251-2.977c-21.772-7-39.683-7-61.442 0l-15.654 5.032-15.654-5.032c-21.791-7.004-39.682-7.004-61.457.002l-9.268 2.975a4.896 4.896 0 0 1-4.38-.704 4.895 4.895 0 0 1-2.01-3.953V49.853a4.899 4.899 0 0 1 3.4-4.65l12.258-3.938c21.775-7.017 39.666-7.017 61.445-.01l15.654 5.032 15.653-5.032c21.772-7.007 39.668-7.007 61.442 0l12.258 3.949a4.898 4.898 0 0 1 3.409 4.66v99.02a4.902 4.902 0 0 1-2.015 3.96 4.895 4.895 0 0 1-4.388.695z" fill="#fff" stroke="#2F3645" stroke-width="3" stroke-miterlimit="10"/><path d="M128.501 155.596V46.287" stroke="#2F3645" stroke-width="3" stroke-miterlimit="10"/><path d="m207.723 60.346-2.08-.67c-21.608-6.945-39.4-6.996-60.95-.155l-.487.156M207.723 72.507l-2.08-.67c-21.608-6.946-39.4-6.997-60.95-.156l-.487.156M207.723 86.695l-2.08-.67c-21.608-6.945-39.4-6.998-60.95-.157l-.487.158M207.722 98.855l-2.079-.67c-21.613-6.945-39.405-6.998-60.955-.153l-.487.159M113.583 108.825l-2.079-.67c-21.61-6.945-39.4-6.999-60.95-.158l-.488.158M113.583 120.985l-2.079-.67c-21.612-6.945-39.4-6.999-60.95-.158l-.488.158M113.583 133.145l-2.079-.669c-21.612-6.934-39.4-6.999-60.95-.158l-.488.158" stroke="#2F3645" stroke-width="3" stroke-miterlimit="10" stroke-linecap="round"/><path d="m207.722 151.234 7.182 2.305a4.896 4.896 0 0 0 4.379-.704 4.895 4.895 0 0 0 2.009-3.953V58.654l4.029 1.196c2.191.65 3.679 2.532 3.679 4.657v99.031c0 3.318-3.501 5.672-6.924 4.657l-10.037-2.97c-23.593-7-42.986-7-66.577 0l-16.961 5.032-16.963-5.032c-23.59-7-42.984-7-66.574 0l-10.04 2.97C31.515 169.21 28 166.856 28 163.538V64.507c0-2.126 1.488-4.007 3.678-4.657l4.112-1.218v90.252a4.892 4.892 0 0 0 6.386 4.655l9.251-2.977c21.774-7 39.683-7 61.445 0l15.654 5.032 10.512-3.379 5.141-1.653c21.772-7 39.683-7 61.442 0l2.101.672z" fill="#E6B9A6" stroke="#2F3645" stroke-width="3" stroke-miterlimit="10"/><path d="M70.305 66.83H64M70.305 66.83 66.669 63M66.669 70.66l3.636-3.83M95.841 66.83h6.305M95.841 66.83l3.636 3.83M99.477 63l-3.636 3.83M89.968 69.524c0-.667-.265-1.308-.736-1.78a2.508 2.508 0 0 0-1.776-.738h-8.802c-.666 0-1.305.266-1.776.738a2.522 2.522 0 0 0-.735 1.78c0 2.645 3.106 4.79 6.94 4.79 3.834 0 6.938-2.145 6.938-4.79" stroke="#2F3645" stroke-width="3" stroke-miterlimit="10" stroke-linecap="round"/><path d="M198.108 33.297c-2.444-2.45-4.276-10.711-4.276-10.711s-8.241-1.837-10.832-4.437c2.543-2.55 10.988-4.588 10.988-4.588S195.62 5.501 198.114 3c2.485 2.5 4.427 10.862 4.427 10.862s8.141 1.736 10.682 4.287c-2.397 2.403-10.533 4.136-10.533 4.136s-1.947 8.362-4.582 11.012zM226.424 40.883c-1.523-1.529-2.669-6.67-2.669-6.67s-5.139-1.145-6.755-2.766c1.586-1.59 6.849-2.86 6.849-2.86s1.016-5.029 2.571-6.587c1.556 1.558 2.761 6.773 2.761 6.773s5.074 1.084 6.66 2.674c-1.488 1.485-6.564 2.567-6.564 2.567s-1.205 5.208-2.853 6.869zM12.424 174.883c-1.523-1.529-2.67-6.669-2.67-6.669S4.617 167.068 3 165.447c1.586-1.59 6.849-2.86 6.849-2.86s1.016-5.028 2.57-6.587c1.557 1.559 2.762 6.773 2.762 6.773s5.074 1.084 6.66 2.674c-1.488 1.485-6.564 2.567-6.564 2.567s-1.205 5.208-2.853 6.869z" fill="#FEC420" stroke="#2F3645" stroke-width="3" stroke-miterlimit="10" stroke-linecap="round"/></svg>
